static/img/kroki/a892977b2e72e60fd373981e27c5866e.svg

<?xml version="1.0" encoding="us-ascii" standalone="no"?><svg xmlns="http://www.w3.org/2000/svg" xmlns:xlink="http://www.w3.org/1999/xlink" contentStyleType="text/css" height="374px" preserveAspectRatio="none" style="width:637px;height:374px;" version="1.1" viewBox="0 0 637 374" width="637px" zoomAndPan="magnify"><defs/><g><!--class digitalocean_kubernetes_cluster--><g id="elem_digitalocean_kubernetes_cluster"><rect codeLine="23" fill="#3D176E" height="39.7891" id="digitalocean_kubernetes_cluster" rx="2.5" ry="2.5" style="stroke:#000D19;stroke-width:0.5;" width="311" x="127" y="328.58"/><ellipse cx="142" cy="348.4745" fill="#ADD1B2" rx="11" ry="11" style="stroke:#181818;stroke-width:1.0;"/><path d="M144.9688,354.1152 Q144.3906,354.412 143.75,354.5527 Q143.1094,354.7089 142.4063,354.7089 Q139.9063,354.7089 138.5781,353.0683 Q137.2656,351.412 137.2656,348.287 Q137.2656,345.162 138.5781,343.5058 Q139.9063,341.8495 142.4063,341.8495 Q143.1094,341.8495 143.75,342.0058 Q144.4063,342.162 144.9688,342.4589 L144.9688,345.1777 Q144.3438,344.5995 143.75,344.3339 Q143.1563,344.0527 142.5313,344.0527 Q141.1875,344.0527 140.5,345.1308 Q139.8125,346.1933 139.8125,348.287 Q139.8125,350.3808 140.5,351.4589 Q141.1875,352.5214 142.5313,352.5214 Q143.1563,352.5214 143.75,352.2558 Q144.3438,351.9745 144.9688,351.3964 L144.9688,354.1152 Z " fill="#000000"/><text fill="#D9B8FF" font-family="Helvetica" font-size="17" lengthAdjust="spacing" textLength="269" x="161" y="354.3598">digitalocean_kubernetes_cluster</text></g><!--class digitalocean_resource--><g id="elem_digitalocean_resource"><rect codeLine="26" fill="#3D176E" height="39.7891" id="digitalocean_resource" rx="2.5" ry="2.5" style="stroke:#000D19;stroke-width:0.5;" width="223" x="7" y="167.79"/><ellipse cx="22" cy="187.6845" fill="#ADD1B2" rx="11" ry="11" style="stroke:#181818;stroke-width:1.0;"/><path d="M24.9688,193.3252 Q24.3906,193.622 23.75,193.7627 Q23.1094,193.9189 22.4063,193.9189 Q19.9063,193.9189 18.5781,192.2783 Q17.2656,190.622 17.2656,187.497 Q17.2656,184.372 18.5781,182.7158 Q19.9063,181.0595 22.4063,181.0595 Q23.1094,181.0595 23.75,181.2158 Q24.4063,181.372 24.9688,181.6689 L24.9688,184.3877 Q24.3438,183.8095 23.75,183.5439 Q23.1563,183.2627 22.5313,183.2627 Q21.1875,183.2627 20.5,184.3408 Q19.8125,185.4033 19.8125,187.497 Q19.8125,189.5908 20.5,190.6689 Q21.1875,191.7314 22.5313,191.7314 Q23.1563,191.7314 23.75,191.4658 Q24.3438,191.1845 24.9688,190.6064 L24.9688,193.3252 Z " fill="#000000"/><text fill="#D9B8FF" font-family="Helvetica" font-size="17" lengthAdjust="spacing" textLength="181" x="41" y="193.5698">digitalocean_resource</text></g><!--class managed_kubernetes_cluster_provider--><g id="elem_managed_kubernetes_cluster_provider"><rect codeLine="29" fill="#3D176E" height="39.7891" id="managed_kubernetes_cluster_provider" rx="2.5" ry="2.5" style="stroke:#000D19;stroke-width:0.5;" width="366" x="264.5" y="167.79"/><ellipse cx="279.5" cy="187.6845" fill="#ADD1B2" rx="11" ry="11" style="stroke:#181818;stroke-width:1.0;"/><path d="M282.4688,193.3252 Q281.8906,193.622 281.25,193.7627 Q280.6094,193.9189 279.9063,193.9189 Q277.4063,193.9189 276.0781,192.2783 Q274.7656,190.622 274.7656,187.497 Q274.7656,184.372 276.0781,182.7158 Q277.4063,181.0595 279.9063,181.0595 Q280.6094,181.0595 281.25,181.2158 Q281.9063,181.372 282.4688,181.6689 L282.4688,184.3877 Q281.8438,183.8095 281.25,183.5439 Q280.6563,183.2627 280.0313,183.2627 Q278.6875,183.2627 278,184.3408 Q277.3125,185.4033 277.3125,187.497 Q277.3125,189.5908 278,190.6689 Q278.6875,191.7314 280.0313,191.7314 Q280.6563,191.7314 281.25,191.4658 Q281.8438,191.1845 282.4688,190.6064 L282.4688,193.3252 Z " fill="#000000"/><text fill="#D9B8FF" font-family="Helvetica" font-size="17" lengthAdjust="spacing" textLength="324" x="298.5" y="193.5698">managed_kubernetes_cluster_provider</text></g><!--class resource--><g id="elem_resource"><rect codeLine="32" fill="#3D176E" height="39.7891" id="resource" rx="2.5" ry="2.5" style="stroke:#000D19;stroke-width:0.5;" width="113" x="226" y="7"/><ellipse cx="241" cy="26.8945" fill="#ADD1B2" rx="11" ry="11" style="stroke:#181818;stroke-width:1.0;"/><path d="M243.9688,32.5352 Q243.3906,32.832 242.75,32.9727 Q242.1094,33.1289 241.4063,33.1289 Q238.9063,33.1289 237.5781,31.4883 Q236.2656,29.832 236.2656,26.707 Q236.2656,23.582 237.5781,21.9258 Q238.9063,20.2695 241.4063,20.2695 Q242.1094,20.2695 242.75,20.4258 Q243.4063,20.582 243.9688,20.8789 L243.9688,23.5977 Q243.3438,23.0195 242.75,22.7539 Q242.1563,22.4727 241.5313,22.4727 Q240.1875,22.4727 239.5,23.5508 Q238.8125,24.6133 238.8125,26.707 Q238.8125,28.8008 239.5,29.8789 Q240.1875,30.9414 241.5313,30.9414 Q242.1563,30.9414 242.75,30.6758 Q243.3438,30.3945 243.9688,29.8164 L243.9688,32.5352 Z " fill="#000000"/><text fill="#D9B8FF" font-family="Helvetica" font-size="17" lengthAdjust="spacing" textLength="71" x="260" y="32.7798">resource</text></g><!--reverse link digitalocean_resource to digitalocean_kubernetes_cluster--><g id="link_digitalocean_resource_digitalocean_kubernetes_cluster"><path codeLine="35" d="M151.2114,220.3611 C182.7314,250.8811 231.08,297.69 262.65,328.25 " fill="none" id="digitalocean_resource-backto-digitalocean_kubernetes_cluster" style="stroke:#FFAF37;stroke-width:2.0;"/><polygon fill="none" points="138.28,207.84,147.0377,224.6716,155.3851,216.0507,138.28,207.84" style="stroke:#FFAF37;stroke-width:2.0;"/></g><!--reverse link managed_kubernetes_cluster_provider to digitalocean_kubernetes_cluster--><g id="link_managed_kubernetes_cluster_provider_digitalocean_kubernetes_cluster"><path codeLine="36" d="M414.6291,220.3202 C382.9091,250.8402 334.23,297.69 302.47,328.25 " fill="none" id="managed_kubernetes_cluster_provider-backto-digitalocean_kubernetes_cluster" style="stroke:#FFAF37;stroke-width:2.0;"/><polygon fill="none" points="427.6,207.84,410.469,215.9966,418.7892,224.6438,427.6,207.84" style="stroke:#FFAF37;stroke-width:2.0;"/></g><!--reverse link resource to digitalocean_resource--><g id="link_resource_digitalocean_resource"><path codeLine="37" d="M249.7886,59.5711 C218.2686,90.0911 169.92,136.9 138.35,167.46 " fill="none" id="resource-backto-digitalocean_resource" style="stroke:#FFAF37;stroke-width:2.0;"/><polygon fill="none" points="262.72,47.05,245.6149,55.2607,253.9623,63.8816,262.72,47.05" style="stroke:#FFAF37;stroke-width:2.0;"/></g><!--reverse link resource to managed_kubernetes_cluster_provider--><g id="link_resource_managed_kubernetes_cluster_provider"><path codeLine="38" d="M315.3709,59.5302 C347.0909,90.0502 395.77,136.9 427.53,167.46 " fill="none" id="resource-backto-managed_kubernetes_cluster_provider" style="stroke:#FFAF37;stroke-width:2.0;"/><polygon fill="none" points="302.4,47.05,311.2108,63.8538,319.531,55.2066,302.4,47.05" style="stroke:#FFAF37;stroke-width:2.0;"/></g><!--SRC=[ZPFDRi8m48JlUGfBd96Wg0r8lG1IrLvGLNf7YxqELX8xMcz0zEVTIqgfJ182rvrFCxChUsCK2imBteiSypMIZtngR044kPWIkTtSPOv4JslGexWkFZdBLu45v2YUCTiY6mbrudrZP6hHUt4NI3EGQKAkjEfepmJM7oIq753p3BoVCfDPbun16JLPZxMkatNJtaWDumTiO8uKqXyo60pKS597haPrxlrFBCq7Yc5uj8LZRDHiHFnIdIqh8YZPMFIaN-pu2aePcuZxOFPsx4GMwMo-t81okuhMaFamnZCIEjuNE6ziXPEnqd4h_789ZcHrEg5COXWo9n7iAYqFpzOYer_9hAnCn6SKVRUXXDwL9344Sh2Ge6gnMHNajeV_SUPtRj7k_lZLx_UlbOnk2RxDgIlufDMX6zAZ7m00]--></g></svg>

<svg xmlns="http://www.w3.org/2000/svg" width="637" height="374" viewBox="0 0 637 374"><rect width="311" height="39.789" x="127" y="328.58" fill="#3D176E" rx="2.5" ry="2.5" style="stroke:#000d19;stroke-width:.5"/><circle cx="142" cy="348.474" r="11" fill="#ADD1B2" style="stroke:#181818;stroke-width:1"/><path d="M144.969 354.115q-.578.297-1.219.438-.64.156-1.344.156-2.5 0-3.828-1.64-1.312-1.657-1.312-4.782t1.312-4.781q1.328-1.656 3.828-1.656.703 0 1.344.156.656.156 1.219.453v2.719q-.625-.579-1.219-.844-.594-.281-1.219-.281-1.344 0-2.031 1.078-.687 1.062-.687 3.156t.687 3.172q.688 1.062 2.031 1.062.625 0 1.219-.265.594-.281 1.219-.86z"/><text x="161" y="354.36" fill="#D9B8FF" font-family="Helvetica" font-size="17" textLength="269">digitalocean_kubernetes_cluster</text><rect width="223" height="39.789" x="7" y="167.79" fill="#3D176E" rx="2.5" ry="2.5" style="stroke:#000d19;stroke-width:.5"/><circle cx="22" cy="187.685" r="11" fill="#ADD1B2" style="stroke:#181818;stroke-width:1"/><path d="M24.969 193.325q-.578.297-1.219.438-.64.156-1.344.156-2.5 0-3.828-1.64-1.312-1.657-1.312-4.782t1.312-4.781q1.328-1.656 3.828-1.656.703 0 1.344.156.656.156 1.219.453v2.719q-.625-.578-1.219-.844-.594-.281-1.219-.281-1.343 0-2.031 1.078-.687 1.062-.687 3.156t.687 3.172q.688 1.062 2.031 1.062.625 0 1.219-.265.594-.281 1.219-.86z"/><text x="41" y="193.57" fill="#D9B8FF" font-family="Helvetica" font-size="17" textLength="181">digitalocean_resource</text><rect width="366" height="39.789" x="264.5" y="167.79" fill="#3D176E" rx="2.5" ry="2.5" style="stroke:#000d19;stroke-width:.5"/><circle cx="279.5" cy="187.685" r="11" fill="#ADD1B2" style="stroke:#181818;stroke-width:1"/><path d="M282.469 193.325q-.578.297-1.219.438-.64.156-1.344.156-2.5 0-3.828-1.64-1.312-1.657-1.312-4.782t1.312-4.781q1.328-1.656 3.828-1.656.703 0 1.344.156.656.156 1.219.453v2.719q-.625-.578-1.219-.844-.594-.281-1.219-.281-1.344 0-2.031 1.078-.687 1.062-.687 3.156t.687 3.172q.688 1.062 2.031 1.062.625 0 1.219-.265.594-.281 1.219-.86z"/><text x="298.5" y="193.57" fill="#D9B8FF" font-family="Helvetica" font-size="17" textLength="324">managed_kubernetes_cluster_provider</text><rect width="113" height="39.789" x="226" y="7" fill="#3D176E" rx="2.5" ry="2.5" style="stroke:#000d19;stroke-width:.5"/><circle cx="241" cy="26.895" r="11" fill="#ADD1B2" style="stroke:#181818;stroke-width:1"/><path d="M243.969 32.535q-.578.297-1.219.438-.64.156-1.344.156-2.5 0-3.828-1.64-1.312-1.657-1.312-4.782t1.312-4.781q1.328-1.656 3.828-1.656.703 0 1.344.156.656.156 1.219.453v2.719q-.625-.578-1.219-.844-.594-.281-1.219-.281-1.344 0-2.031 1.078-.687 1.062-.687 3.156t.687 3.172q.688 1.062 2.031 1.062.625 0 1.219-.265.594-.281 1.219-.86z"/><text x="260" y="32.78" fill="#D9B8FF" font-family="Helvetica" font-size="17" textLength="71">resource</text><g fill="none"><path d="M151.211 220.361c31.52 30.52 79.869 77.329 111.439 107.889" style="stroke:#ffaf37;stroke-width:2"/><path d="m138.28 207.84 8.758 16.832 8.347-8.621z" style="stroke:#ffaf37;stroke-width:2"/></g><g fill="none"><path d="M414.63 220.32c-31.72 30.52-80.4 77.37-112.16 107.93" style="stroke:#ffaf37;stroke-width:2"/><path d="m427.6 207.84-17.131 8.157 8.32 8.647z" style="stroke:#ffaf37;stroke-width:2"/></g><g fill="none"><path d="M249.789 59.571C218.269 90.091 169.92 136.9 138.35 167.46" style="stroke:#ffaf37;stroke-width:2"/><path d="m262.72 47.05-17.105 8.21 8.347 8.622z" style="stroke:#ffaf37;stroke-width:2"/></g><g fill="none"><path d="M315.37 59.53c31.72 30.52 80.4 77.37 112.16 107.93" style="stroke:#ffaf37;stroke-width:2"/><path d="m302.4 47.05 8.81 16.804 8.321-8.647z" style="stroke:#ffaf37;stroke-width:2"/></g></svg>
